X: 12151
T: Lochaber no more
%R: air, waltz
B: James Oswald "The Caledonian Pocket Companion" v.1 b.1 p.15 (top 3 staves continued from p.14)
Z: 2020 John Chambers <jc:trillian.mit.edu>
M: 3/4
L: 1/8
K: G
"_Slow"G>A |\
B2 B2 (B/c/)d | TB3 A {BA}G2  | e2 A2 (A/B/)c |{B2}A4 (G>A) |\
B2 (cB)(AG) | D3 EGA | TB2 (AG) (G>A) | G4 :|
|: G>A |\
Bc d2  (e/f/)g | {e}d3 cTB>A | G2 g2 ga | g4 G>A |\
Bc d2 e2 | d>edc(TB>A) | G2 B2 d2 | g4 d>e |
(=fef).a.g.f | Te3 d (B/d/)g | (ed)(cB)(AG) | A4 G>A |\
(Bc)(de) (A>G) | D3 edc | TB2 (AG) (G>A) | G4 :|
M:6/8
|: "_Brisk"g |\
d2G (AB)d | (ed)B A2g | edB d2D | EG G2 :: A |\
(B/c/d)e (dB)G | (f/g/a)f g2G |
B/c/de dBA | G2g gdg |\
=fFf (e/f/g)e | (dB)g (AB)d | (ed)B d2D | EGG G2 :|


